img/services/6.svg

<svg width="48" height="48" viewBox="0 0 48 48" fill="none" xmlns="http://www.w3.org/2000/svg">
<path d="M32.253 12.46C32.985 13.192 34.171 13.194 34.903 12.46L37.511 9.85205C38.242 9.12004 38.24 7.93404 37.511 7.20105L30.928 0.620045C30.198 -0.111955 29.012 -0.111955 28.28 0.620045L25.671 3.22804C24.941 3.96004 24.941 5.14604 25.671 5.87604L32.253 12.46Z" fill="url(#paint0_linear)"/>
<path d="M16.667 28.338C17.398 29.067 18.584 29.067 19.315 28.338L21.924 25.728C22.656 24.998 22.656 23.811 21.924 23.079L15.341 16.496C14.61 15.766 13.424 15.764 12.692 16.496L10.084 19.104C9.35202 19.836 9.35402 21.022 10.084 21.754L16.667 28.338Z" fill="url(#paint1_linear)"/>
<path d="M46.549 28.964L43.902 26.314C43.168 25.584 41.985 25.584 41.254 26.314L40.093 27.474L28.888 16.267L31.315 13.839L24.582 7.10803L22.154 9.53603L19.062 12.626L16.688 15L23.42 21.733L25.797 19.36L37 30.565L35.952 31.614C35.22 32.343 35.218 33.53 35.952 34.262L38.599 36.91C39.333 37.644 40.518 37.644 41.249 36.91L46.548 31.613C47.281 30.88 47.281 29.696 46.549 28.964Z" fill="url(#paint2_linear)"/>
<path d="M26.978 37.0131C26.978 35.8141 26.006 34.8401 24.805 34.8401H7.837C6.637 34.8401 5.664 35.8141 5.664 37.0131V40.5401H0.901001V47.9291H31.459V40.5401H26.978V37.0131Z" fill="url(#paint3_linear)"/>
<defs>
<linearGradient id="paint0_linear" x1="31.591" y1="0.0710449" x2="31.591" y2="13.0098" gradientUnits="userSpaceOnUse">
<stop stop-color="#EF8080"/>
<stop offset="1" stop-color="#F0145A"/>
</linearGradient>
<linearGradient id="paint1_linear" x1="16.0044" y1="15.9478" x2="16.0044" y2="28.8848" gradientUnits="userSpaceOnUse">
<stop stop-color="#EF8080"/>
<stop offset="1" stop-color="#F0145A"/>
</linearGradient>
<linearGradient id="paint2_linear" x1="31.8929" y1="7.10803" x2="31.8929" y2="37.4605" gradientUnits="userSpaceOnUse">
<stop stop-color="#EF8080"/>
<stop offset="1" stop-color="#F0145A"/>
</linearGradient>
<linearGradient id="paint3_linear" x1="16.18" y1="34.8401" x2="16.18" y2="47.9291" gradientUnits="userSpaceOnUse">
<stop stop-color="#EF8080"/>
<stop offset="1" stop-color="#F0145A"/>
</linearGradient>
</defs>
</svg>

<?xml version="1.0" encoding="UTF-8"?>
<svg id="SVGDoc" width="48" height="48" xmlns="http://www.w3.org/2000/svg" version="1.1" xmlns:xlink="http://www.w3.org/1999/xlink" xmlns:avocode="https://avocode.com/" viewBox="0 0 48 48"><defs><linearGradient id="LinearGradient1226" gradientUnits="userSpaceOnUse" x1="31.590000000000032" y1="0.06999999999993634" x2="31.590000000000032" y2="13.009999999999991"><stop stop-opacity="1" stop-color="#ef8080" offset="0"></stop><stop stop-opacity="1" stop-color="#f0145a" offset="1"></stop></linearGradient><linearGradient id="LinearGradient1234" gradientUnits="userSpaceOnUse" x1="16.00999999999999" y1="15.950000000000045" x2="16.00999999999999" y2="28.8900000000001"><stop stop-opacity="1" stop-color="#ef8080" offset="0"></stop><stop stop-opacity="1" stop-color="#f0145a" offset="1"></stop></linearGradient><linearGradient id="LinearGradient1242" gradientUnits="userSpaceOnUse" x1="31.895000000000095" y1="7.1099999999999" x2="31.895000000000095" y2="37.45999999999981"><stop stop-opacity="1" stop-color="#ef8080" offset="0"></stop><stop stop-opacity="1" stop-color="#f0145a" offset="1"></stop></linearGradient><linearGradient id="LinearGradient1250" gradientUnits="userSpaceOnUse" x1="16.17999999999995" y1="34.83999999999992" x2="16.17999999999995" y2="47.929999999999836"><stop stop-opacity="1" stop-color="#ef8080" offset="0"></stop><stop stop-opacity="1" stop-color="#f0145a" offset="1"></stop></linearGradient></defs><desc>Generated with Avocode.</desc><g><g><title>iconfinder_Lawyer1_2315987 1</title><g><title>Background</title></g><g><title>Layer 3</title><g><title>Group</title><g><title>Vector</title><path d="M32.2495,12.459c0.732,0.732 1.918,0.734 2.65,0l2.608,-2.608c0.731,-0.732 0.729,-1.918 0,-2.651l-6.583,-6.581c-0.73,-0.732 -1.916,-0.732 -2.648,0l-2.609,2.608c-0.73,0.732 -0.73,1.918 0,2.648z" fill="url(#LinearGradient1226)"></path></g><g><title>Vector</title><path d="M16.67125,28.3402c0.731,0.729 1.917,0.729 2.648,0l2.60905,-2.60995c0.732,-0.73 0.732,-1.917 0,-2.649l-6.58305,-6.583c-0.731,-0.73 -1.917,-0.732 -2.649,0l-2.608,2.608c-0.732,0.732 -0.73,1.918 0,2.65z" fill="url(#LinearGradient1234)"></path></g><g><title>Vector</title><path d="M46.551,28.966v0l-2.647,-2.65c-0.734,-0.73 -1.917,-0.73 -2.648,0l-1.161,1.16v0l-11.205,-11.207v0l2.427,-2.428v0l-6.733,-6.731v0l-2.428,2.428v0l-3.092,3.09v0l-2.374,2.374v0l6.732,6.733v0l2.377,-2.373v0l11.203,11.205v0l-1.048,1.049c-0.732,0.729 -0.734,1.916 0,2.648l2.647,2.648c0.734,0.734 1.919,0.734 2.65,0l5.299,-5.297c0.733,-0.733 0.733,-1.917 0.001,-2.649z" fill="url(#LinearGradient1242)"></path></g><g><title>Vector</title><path d="M26.977,37.013c0,-1.199 -0.972,-2.173 -2.173,-2.173h-16.968c-1.2,0 -2.173,0.974 -2.173,2.173v3.527v0h-4.763v0v7.389v0h30.558v0v-7.389v0h-4.481v0z" fill="url(#LinearGradient1250)"></path></g></g></g></g></g></svg>
